X:1
T:[ID 3-27]
T:[ID 3-27]
T:Bezeichnung standardisiert: Polonaise Polonoise 18.
T:Urheber unbekannt Datum in der hier transkribierten schriftlichen Quelle: 1775
C:Urheber unbekannt
C:Datum in der hier transkribierten schriftlichen Quelle: 1775
L:1/8
M:3/4
K:D
V:1 treble 
V:1
 FF/E/ FdAe | dc/B/ AGFE | aFgEfD | cBAG AG/F/ | FF/E/ FdAe | dc/B/ AGFE | aFgEfD | GF/E/ F2 F2 :: %8
 dA/F/ f2 e2 | dc/B/ AGFE | DE/F/ GFED | EBAG AG/F/ | FF/E/ FdAe | dc/B/ AGFE | aFgEfD | %15
 GF/E/ F2 F2 :| %16

